packages/icons/src/SVG/save-solid.svg

<!-- Generated by IcoMoon.io -->
<svg version="1.1" xmlns="http://www.w3.org/2000/svg" width="12" height="12" viewBox="0 0 12 12">
<title>save-solid</title>
<path d="M9 7h-6v2h6v-2z"></path>
<path d="M3 0v4h5v-4h0.707l3.293 3.293v8.707h-12v-12h3zM10 6h-8v4h8v-4z"></path>
<path d="M4 0v3h3v-3h-3z"></path>
</svg>

<svg width="12" height="12" viewBox="0 0 12 12" >
<path d="M9 7H3V9H9V7Z" />
<path fill-rule="evenodd" clip-rule="evenodd" d="M3 0H0V12H12V3.29289L8.70711 0H8V4H3V0ZM10 6H2V10H10V6Z" />
<path d="M4 0V3L7 3V0H4Z" />
</svg>
